svg/s/ST.svg

<svg width="16" height="12" viewBox="0 0 16 12" fill="none" xmlns="http://www.w3.org/2000/svg">
<g clip-path="url(#clip0_270_55093)">
<rect width="16" height="12" fill="white"/>
<path fill-rule="evenodd" clip-rule="evenodd" d="M0 0V12H16V0H0Z" fill="#FBCD17"/>
<path fill-rule="evenodd" clip-rule="evenodd" d="M0 0V4H16V0H0Z" fill="#73BE4A"/>
<path fill-rule="evenodd" clip-rule="evenodd" d="M0 8V12H16V8H0Z" fill="#73BE4A"/>
<path fill-rule="evenodd" clip-rule="evenodd" d="M0 0V12L5 6L0 0Z" fill="#C51918"/>
<path fill-rule="evenodd" clip-rule="evenodd" d="M8.5009 6.93534L7.56556 7.5L7.77891 6.39812L7 5.57347L8.05468 5.52888L8.5009 4.5L8.94711 5.52888H10L9.22289 6.39812L9.45685 7.5L8.5009 6.93534Z" fill="#272727"/>
<path fill-rule="evenodd" clip-rule="evenodd" d="M12.5009 6.93534L11.5656 7.5L11.7789 6.39812L11 5.57347L12.0547 5.52888L12.5009 4.5L12.9471 5.52888H14L13.2229 6.39812L13.4568 7.5L12.5009 6.93534Z" fill="#272727"/>
</g>
<defs>
<clipPath id="clip0_270_55093">
<rect width="16" height="12" fill="white"/>
</clipPath>
</defs>
</svg>

<svg width="16" height="12" fill="none" xmlns="http://www.w3.org/2000/svg">
  <mask id="a" maskUnits="userSpaceOnUse" x="0" y="0" width="16" height="12">
    <path fill="#fff" d="M0 0h16v12H0z"/>
  </mask>
  <g mask="url(#a)" fill-rule="evenodd" clip-rule="evenodd">
    <path d="M0 0v12h16V0H0z" fill="#FBCD17"/>
    <path d="M0 0v4h16V0H0zm0 8v4h16V8H0z" fill="#73BE4A"/>
    <path d="M0 0v12l5-6-5-6z" fill="#C51918"/>
    <path d="M8.5 6.935l-.934.565.213-1.102L7 5.573l1.055-.044L8.5 4.5l.446 1.029H10l-.777.87.234 1.101-.956-.565zm4 0l-.934.565.213-1.102L11 5.573l1.055-.044L12.5 4.5l.446 1.029H14l-.777.87.234 1.101-.956-.565z" fill="#272727"/>
  </g>
</svg>
